_icons/SVG/534-conkeldurr-shiny.svg

<svg xmlns="http://www.w3.org/2000/svg" viewBox="0 0 32 32"><title>534-conkeldurr-shiny</title><path d="M9.77441,9.02459A3.77844,3.77844,0,0,0,5.532,7.80413l-.68091,7.427a5.51621,5.51621,0,0,0,4.58289.60229A9.2871,9.2871,0,0,1,9.77441,9.02459Z" style="fill:#ea9c7a"/><polygon points="5.27 7.034 4.969 9.561 6.082 10.832 7.077 9.784 5.27 7.034" style="fill:#f4a984"/><rect x="0.08903" y="9.8364" width="6.46427" height="17.54574" style="fill:#abb2b1"/><path d="M14.5542,13.00512c-.82227-1.40271-1.54389-2.94757-2.292-4.26861a11.84147,11.84147,0,0,0-.26184,7.80395A14.2438,14.2438,0,0,0,14.5542,13.00512Z" style="fill:#ea9c7a"/><path d="M14.44617,8.63177l-1.2674.10474a11.1608,11.1608,0,0,1,2.53613,4.42572,12.28665,12.28665,0,0,1-3.05419,3.92816,1.45836,1.45836,0,0,1,.23,1.807c-2.402,2.35339-2.47443,4.01159-1.36182,5.3161-2.17352,1.676,2.54022.44519,1.62366-.31427.10351-.8639,1.55389-1.25116,2.84741-1.187V9.07013Z" style="fill:#ea9c7a"/><path d="M15.7149,13.16223a11.1608,11.1608,0,0,0-2.53613-4.42572c-.32959-.31183-.63971-.37152-.91656,0,.7481,1.321,1.46972,2.8659,2.292,4.26861a14.2438,14.2438,0,0,1-2.55383,3.53534c-.07807.42011.15173.59577.66034.54993A12.28665,12.28665,0,0,0,15.7149,13.16223Z" style="fill:#e7685f"/><path d="M12.26221,8.73651c-.48578-.21192-.94062-.28119-1.257.28808a10.56808,10.56808,0,0,0-.18329,7.09687c.177.61773.61175.66455,1.17847.419A11.84147,11.84147,0,0,1,12.26221,8.73651Z" style="fill:#e9746a"/><path d="M11.00519,9.02459a.87909.87909,0,0,0-1.23078,0A9.2871,9.2871,0,0,0,9.434,15.83337c.15118.52539.61664.61749,1.38794.28809A10.56808,10.56808,0,0,1,11.00519,9.02459Z" style="fill:#ec8179"/><path d="M13.34876,20.70429a1.47319,1.47319,0,0,1-.458-1.807c-.95027-.12487-1.751.45508-.75947,2.04264" style="fill:#e7685f"/><path d="M5.9248,5.3059a2.3725,2.3725,0,0,0-2.04266.75946c-.6427,1.166-1.73584,1.332-1.99023.48371-.83435-.33515-1.46259-.13465-1.676.38049-.73321,5.09918,1.96405,3.77106,1.676,2.4093L1.63,7.80413,3.59412,7.4533,3.07867,9.33886c-.54992,1.41413,1.24006,1.70221,1.89032.2226L5.27008,7.0343,7.077,9.78405l-.99512,1.04749c-1.57208.57587-1.44031,2.25214,0,1.95709l2.01648-1.25232V9.31262C5.84625,8.48028,6.21289,5.43689,5.9248,5.3059Z" style="fill:#f9bda0"/><polygon points="1.63 7.804 1.892 9.339 3.079 9.339 3.594 7.453 1.63 7.804" style="fill:#f4a984"/><path d="M15.94928,14.28833c-.27777,0-.503.77966-.503,1.74145s.22522,1.74152.503,1.74152A.16675.16675,0,0,0,16,17.7536V14.306A.16837.16837,0,0,0,15.94928,14.28833Z" style="fill:#e7685f"/><path d="M15.96771,7.80413a3.307,3.307,0,0,0-3.307,3.307,3.60217,3.60217,0,0,0,3.307,3.6341c.011,0,.02124-.00379.03229-.00391v-6.934C15.989,7.80725,15.97876,7.80413,15.96771,7.80413Z" style="fill:#f4a984"/><polygon points="14.987 14.567 16 15.465 16 13.658 14.987 14.567" style="fill:#abb2b1"/><path d="M14.9184,12.69189A1.18326,1.18326,0,0,0,16,13.95544v-2.5271A1.18326,1.18326,0,0,0,14.9184,12.69189Z" style="fill:#ce692c"/><path d="M13.4939,11.16009a.89086.89086,0,0,0-.14514.61035c0,.46277.39019.73572.99768.73572a.99609.99609,0,0,0,1.09985-.83795.62439.62439,0,0,0-.02911-.10993A6.47856,6.47856,0,0,1,13.4939,11.16009Z" style="fill:#373f3f"/><path d="M13.90253,11.30481c-.0102.37194.13849.68194.38086.72009.23376.03686.46234-.19367.57287-.52991A6.66021,6.66021,0,0,1,13.90253,11.30481Z" style="fill:#f7f7f7"/><path d="M14.34607,11.41076c-.019.12757-.004.23749.04932.25.05474.01276.11969-.08288.15881-.211C14.48273,11.43786,14.41467,11.42413,14.34607,11.41076Z" style="fill:#373f3f"/><path d="M14.67273,6.26959A2.42576,2.42576,0,0,0,16,8.48028V4.61786C15.2851,4.61786,14.81665,5.38147,14.67273,6.26959Z" style="fill:#f6b392"/><path d="M22.22559,9.02459A3.77844,3.77844,0,0,1,26.468,7.80413l.68091,7.427a5.51621,5.51621,0,0,1-4.58289.60229A9.2871,9.2871,0,0,0,22.22559,9.02459Z" style="fill:#e59276"/><polygon points="26.73 7.034 27.031 9.561 25.918 10.832 24.923 9.784 26.73 7.034" style="fill:#ea9c7a"/><rect x="25.4467" y="9.8364" width="6.46427" height="17.54574" transform="translate(57.35767 37.21855) rotate(-180)" style="fill:#9da5a4"/><path d="M17.4458,13.00512c.82227-1.40271,1.54389-2.94757,2.292-4.26861a11.84147,11.84147,0,0,1,.26184,7.80395A14.2438,14.2438,0,0,1,17.4458,13.00512Z" style="fill:#e59276"/><path d="M17.55383,8.63177l1.2674.10474a11.1608,11.1608,0,0,0-2.53613,4.42572,12.28665,12.28665,0,0,0,3.05419,3.92816,1.45836,1.45836,0,0,0-.23,1.807c2.402,2.35339,2.47443,4.01159,1.36182,5.3161,2.17352,1.676-2.54022.44519-1.62366-.31427-.10351-.8639-1.55389-1.25116-2.84741-1.187V9.07013Z" style="fill:#e59276"/><path d="M16.2851,13.16223a11.1608,11.1608,0,0,1,2.53613-4.42572c.32959-.31183.63971-.37152.91656,0-.7481,1.321-1.46972,2.8659-2.292,4.26861a14.2438,14.2438,0,0,0,2.55383,3.53534c.07807.42011-.15173.59577-.66034.54993A12.28665,12.28665,0,0,1,16.2851,13.16223Z" style="fill:#e55d53"/><path d="M19.73779,8.73651c.48578-.21192.94062-.28119,1.257.28808a10.56808,10.56808,0,0,1,.18329,7.09687c-.177.61773-.61175.66455-1.17847.419A11.84147,11.84147,0,0,0,19.73779,8.73651Z" style="fill:#e7685f"/><path d="M20.99481,9.02459a.87909.87909,0,0,1,1.23078,0,9.2871,9.2871,0,0,1,.34045,6.80878c-.15118.52539-.61664.61749-1.38794.28809A10.56808,10.56808,0,0,0,20.99481,9.02459Z" style="fill:#e9746a"/><path d="M18.65124,20.70429a1.47319,1.47319,0,0,0,.458-1.807c.95027-.12487,1.751.45508.75947,2.04264" style="fill:#e55d53"/><path d="M26.0752,5.3059a2.3725,2.3725,0,0,1,2.04266.75946c.6427,1.166,1.73584,1.332,1.99023.48371.83435-.33515,1.46259-.13465,1.676.38049.73321,5.09918-1.96405,3.77106-1.676,2.4093L30.37,7.80413,28.40588,7.4533l.51545,1.88556c.54992,1.41413-1.24006,1.70221-1.89032.2226L26.72992,7.0343,24.923,9.78405l.99512,1.04749c1.57208.57587,1.44031,2.25214,0,1.95709l-2.01648-1.25232V9.31262C26.15375,8.48028,25.78711,5.43689,26.0752,5.3059Z" style="fill:#f6b392"/><polygon points="30.37 7.804 30.108 9.339 28.921 9.339 28.406 7.453 30.37 7.804" style="fill:#ea9c7a"/><path d="M16.05072,14.28833c.27777,0,.503.77966.503,1.74145s-.22522,1.74152-.503,1.74152A.16675.16675,0,0,1,16,17.7536V14.306A.16837.16837,0,0,1,16.05072,14.28833Z" style="fill:#e55d53"/><path d="M16.03229,7.80413a3.307,3.307,0,0,1,3.307,3.307,3.60217,3.60217,0,0,1-3.307,3.6341c-.01105,0-.02124-.00379-.03229-.00391v-6.934C16.01105,7.80725,16.02124,7.80413,16.03229,7.80413Z" style="fill:#ea9c7a"/><polygon points="17.013 14.567 16 15.465 16 13.658 17.013 14.567" style="fill:#9da5a4"/><path d="M17.0816,12.69189A1.18326,1.18326,0,0,1,16,13.95544v-2.5271A1.18326,1.18326,0,0,1,17.0816,12.69189Z" style="fill:#c95f2b"/><path d="M18.5061,11.16009a.89086.89086,0,0,1,.14514.61035c0,.46277-.39019.73572-.99768.73572a.99609.99609,0,0,1-1.09985-.83795.62439.62439,0,0,1,.02911-.10993A6.47856,6.47856,0,0,0,18.5061,11.16009Z" style="fill:#2b3332"/><path d="M18.09747,11.30481c.0102.37194-.13849.68194-.38086.72009-.23376.03686-.46234-.19367-.57287-.52991A6.66021,6.66021,0,0,0,18.09747,11.30481Z" style="fill:#edeeee"/><path d="M17.65393,11.41076c.019.12757.004.23749-.04932.25-.05474.01276-.11969-.08288-.15881-.211C17.51727,11.43786,17.58533,11.42413,17.65393,11.41076Z" style="fill:#2b3332"/><path d="M17.32727,6.26959A2.42576,2.42576,0,0,1,16,8.48028V4.61786C16.7149,4.61786,17.18335,5.38147,17.32727,6.26959Z" style="fill:#f4a984"/></svg>

<svg xmlns="http://www.w3.org/2000/svg" viewBox="0 0 32 32"><path d="M9.774 9.025a3.778 3.778 0 00-4.242-1.22l-.68 7.426a5.516 5.516 0 004.582.602 9.287 9.287 0 01.34-6.808z" fill="#ea9c7a"/><path fill="#f4a984" d="M5.27 7.034l-.301 2.527 1.113 1.271.995-1.048-1.807-2.75z"/><path fill="#abb2b1" d="M.089 9.836h6.464v17.546H.089z"/><path d="M14.554 13.005c-.822-1.403-1.544-2.947-2.292-4.268A11.841 11.841 0 0012 16.54a14.244 14.244 0 002.554-3.535z" fill="#ea9c7a"/><path d="M14.446 8.632l-1.267.105a11.16 11.16 0 012.536 4.425 12.287 12.287 0 01-3.054 3.928 1.458 1.458 0 01.23 1.807c-2.402 2.354-2.475 4.012-1.362 5.316-2.174 1.676 2.54.446 1.624-.314.103-.864 1.553-1.25 2.847-1.187V9.07z" fill="#ea9c7a"/><path d="M15.715 13.162a11.16 11.16 0 00-2.536-4.425c-.33-.312-.64-.372-.917 0 .748 1.32 1.47 2.865 2.292 4.268A14.244 14.244 0 0112 16.54c-.078.42.152.596.66.55a12.287 12.287 0 003.055-3.928z" fill="#e7685f"/><path d="M12.262 8.737c-.486-.212-.94-.282-1.257.288a10.568 10.568 0 00-.183 7.096c.177.618.612.665 1.178.42a11.841 11.841 0 01.262-7.804z" fill="#e9746a"/><path d="M11.005 9.025a.88.88 0 00-1.23 0 9.287 9.287 0 00-.341 6.808c.151.526.617.618 1.388.288a10.568 10.568 0 01.183-7.096z" fill="#ec8179"/><path d="M13.349 20.704a1.473 1.473 0 01-.458-1.807c-.95-.125-1.751.455-.76 2.043" fill="#e7685f"/><path d="M5.925 5.306a2.373 2.373 0 00-2.043.76c-.643 1.165-1.736 1.331-1.99.483-.834-.335-1.463-.135-1.676.38-.733 5.1 1.964 3.772 1.676 2.41L1.63 7.804l1.964-.35-.515 1.885c-.55 1.414 1.24 1.702 1.89.222l.301-2.527 1.807 2.75-.995 1.048c-1.572.575-1.44 2.252 0 1.957l2.016-1.253V9.313C5.846 8.48 6.213 5.437 5.925 5.306z" fill="#f9bda0"/><path fill="#f4a984" d="M1.63 7.804l.262 1.535h1.187l.515-1.886-1.964.351z"/><path d="M15.95 14.288c-.278 0-.504.78-.504 1.742s.226 1.741.503 1.741a.167.167 0 00.051-.017v-3.448a.168.168 0 00-.05-.018z" fill="#e7685f"/><path d="M15.968 7.804a3.307 3.307 0 00-3.307 3.307 3.602 3.602 0 003.307 3.634c.01 0 .021-.004.032-.004V7.807c-.011 0-.021-.003-.032-.003z" fill="#f4a984"/><path fill="#abb2b1" d="M14.987 14.567l1.013.898v-1.807l-1.013.909z"/><path d="M14.918 12.692A1.183 1.183 0 0016 13.955v-2.527a1.183 1.183 0 00-1.082 1.264z" fill="#ce692c"/><path d="M13.494 11.16a.89.89 0 00-.145.61c0 .463.39.736.997.736a.996.996 0 001.1-.838.624.624 0 00-.029-.11 6.479 6.479 0 01-1.923-.398z" fill="#373f3f"/><path d="M13.903 11.305c-.01.372.138.682.38.72.234.037.463-.194.573-.53a6.66 6.66 0 01-.953-.19z" fill="#f7f7f7"/><path d="M14.346 11.41c-.019.128-.004.238.05.25.054.014.12-.082.158-.21a5.91 5.91 0 01-.208-.04z" fill="#373f3f"/><path d="M14.673 6.27A2.426 2.426 0 0016 8.48V4.618c-.715 0-1.183.763-1.327 1.652z" fill="#f6b392"/><path d="M22.226 9.025a3.778 3.778 0 014.242-1.22l.68 7.426a5.516 5.516 0 01-4.582.602 9.287 9.287 0 00-.34-6.808z" fill="#e59276"/><path fill="#ea9c7a" d="M26.73 7.034l.301 2.527-1.113 1.271-.995-1.048 1.807-2.75z"/><path fill="#9da5a4" d="M31.91 27.383h-6.463V9.837h6.464z"/><path d="M17.446 13.005c.822-1.403 1.544-2.947 2.292-4.268A11.841 11.841 0 0120 16.54a14.244 14.244 0 01-2.554-3.535z" fill="#e59276"/><path d="M17.554 8.632l1.267.105a11.16 11.16 0 00-2.536 4.425 12.287 12.287 0 003.054 3.928 1.458 1.458 0 00-.23 1.807c2.402 2.354 2.475 4.012 1.362 5.316 2.174 1.676-2.54.446-1.624-.314-.103-.864-1.553-1.25-2.847-1.187V9.07z" fill="#e59276"/><path d="M16.285 13.162a11.16 11.16 0 012.536-4.425c.33-.312.64-.372.917 0-.748 1.32-1.47 2.865-2.292 4.268A14.244 14.244 0 0020 16.54c.078.42-.152.596-.66.55a12.287 12.287 0 01-3.055-3.928z" fill="#e55d53"/><path d="M19.738 8.737c.486-.212.94-.282 1.257.288a10.568 10.568 0 01.183 7.096c-.177.618-.612.665-1.178.42a11.841 11.841 0 00-.262-7.804z" fill="#e7685f"/><path d="M20.995 9.025a.88.88 0 011.23 0 9.287 9.287 0 01.341 6.808c-.151.526-.617.618-1.388.288a10.568 10.568 0 00-.183-7.096z" fill="#e9746a"/><path d="M18.651 20.704a1.473 1.473 0 00.458-1.807c.95-.125 1.751.455.76 2.043" fill="#e55d53"/><path d="M26.075 5.306a2.373 2.373 0 012.043.76c.643 1.165 1.736 1.331 1.99.483.834-.335 1.463-.135 1.676.38.733 5.1-1.964 3.772-1.676 2.41l.262-1.535-1.964-.35.515 1.885c.55 1.414-1.24 1.702-1.89.222l-.301-2.527-1.807 2.75.995 1.048c1.572.575 1.44 2.252 0 1.957l-2.016-1.253V9.313c2.252-.833 1.885-3.876 2.173-4.007z" fill="#f6b392"/><path fill="#ea9c7a" d="M30.37 7.804l-.262 1.535h-1.187l-.515-1.886 1.964.351z"/><path d="M16.05 14.288c.278 0 .504.78.504 1.742s-.226 1.741-.503 1.741a.167.167 0 01-.051-.017v-3.448a.168.168 0 01.05-.018z" fill="#e55d53"/><path d="M16.032 7.804a3.307 3.307 0 013.307 3.307 3.602 3.602 0 01-3.307 3.634c-.01 0-.021-.004-.032-.004V7.807c.011 0 .021-.003.032-.003z" fill="#ea9c7a"/><path fill="#9da5a4" d="M17.013 14.567L16 15.465v-1.807l1.013.909z"/><path d="M17.082 12.692A1.183 1.183 0 0116 13.955v-2.527a1.183 1.183 0 011.082 1.264z" fill="#c95f2b"/><path d="M18.506 11.16a.89.89 0 01.145.61c0 .463-.39.736-.997.736a.996.996 0 01-1.1-.838.624.624 0 01.029-.11 6.479 6.479 0 001.923-.398z" fill="#2b3332"/><path d="M18.097 11.305c.01.372-.138.682-.38.72-.234.037-.463-.194-.573-.53a6.66 6.66 0 00.953-.19z" fill="#edeeee"/><path d="M17.654 11.41c.019.128.004.238-.05.25-.054.014-.12-.082-.158-.21a5.91 5.91 0 00.208-.04z" fill="#2b3332"/><path d="M17.327 6.27A2.426 2.426 0 0116 8.48V4.618c.715 0 1.183.763 1.327 1.652z" fill="#f4a984"/></svg>
